X:08
T:Fisher's Hornpipe
S:Jim Coon to CoMandoList TOW
R:HP
M:4/4
L:1/8
K:D
P:A
(3ABc|:"D"dAFD "G"GBAG|"D"FDFA "G"GBAG|"D"FDFA "G"GBAG|"D"FDFA "A"E2 (3A
Bc|!
"D"dAFD "G"GBAG|"D"FDFA "G"GBAG|"D"ABcA "A"ecAc|1 "D"d2dd d2 (3ABc:|2 "D
"d2dd d2cd|!
P:B
|:"A"ecAc egfe|"D"fdAd fagf|"A"ecAc efec|"E"edcB "A"A2dc|!
"G"BGDG BdcB|"D"AFDF AdcB|"D"ABcA "A"ecAc|1 "D"d2dd d2cd:|2 "D"d2dd d2fg
|!
P:C
|:"D"a2ab afdf|"A"gfga g2e2|"D"f2fg fedf|"A"edcB A2dc|!
"G"BGDG BdcB|"D"AFDF AdcA|"D"ABcA "A"ecAc|1 "D"d2dd d2fg:|2 "D"d2dd d2|!
W:C section compliments of Eck Robertson.  Traditional in some circles.
